assets/images/ico_email3.svg

<svg width="18" height="13" viewBox="0 0 18 13" fill="none" xmlns="http://www.w3.org/2000/svg">
<path d="M14.3333 1.07996H3.66667C2.19573 1.07996 1 2.25447 1 3.69814V9.98178C1 11.4254 2.19573 12.6 3.66667 12.6H14.3333C15.8043 12.6 17 11.4254 17 9.98178V3.69814C17 2.25447 15.8043 1.07996 14.3333 1.07996ZM15.9333 9.98178C15.9333 10.2237 15.8731 10.4504 15.7728 10.6546L11.7173 6.67396L15.7589 3.03626C15.7632 3.03207 15.7659 3.02527 15.7701 3.02212C15.8704 3.22791 15.9333 3.45517 15.9333 3.69814V9.98178ZM14.3333 2.12723C14.5792 2.12723 14.8107 2.1864 15.0176 2.28432L10.2112 6.61008C9.55413 7.20231 8.44373 7.20231 7.78667 6.61008L2.97973 2.28432C3.19093 2.1864 3.41813 2.12723 3.664 2.12723H14.3333ZM2.06667 3.69814C2.06667 3.45517 2.128 3.22791 2.22933 3.02212C2.2336 3.02736 2.23733 3.03312 2.24053 3.03626L6.28213 6.67396L2.22667 10.6546C2.1264 10.4499 2.06613 10.2237 2.06613 9.98178L2.06667 3.69814ZM3.66667 11.5527C3.41973 11.5527 3.18933 11.4935 2.98133 11.3951L7.0688 7.38192C7.60107 7.86105 8.30133 8.10087 9 8.10087C9.69867 8.10087 10.3989 7.86105 10.9312 7.38192L15.0187 11.3951C14.8091 11.4935 14.5792 11.5527 14.3333 11.5527H3.66667Z" fill="#ABB2BA" stroke="#ABB2BA" stroke-width="0.3"/>
</svg>

<svg width="18" height="13" fill="none" xmlns="http://www.w3.org/2000/svg"><path d="M14.333 1.08H3.667C2.196 1.08 1 2.254 1 3.698v6.284C1 11.425 2.196 12.6 3.667 12.6h10.666C15.804 12.6 17 11.425 17 9.982V3.698c0-1.444-1.196-2.618-2.667-2.618zm1.6 8.902c0 .242-.06.468-.16.673l-4.056-3.981 4.042-3.638.011-.014c.1.206.163.433.163.676v6.284zm-1.6-7.855c.246 0 .478.06.685.157L10.21 6.61c-.657.592-1.767.592-2.424 0L2.98 2.284c.21-.098.438-.157.684-.157h10.67zM2.067 3.698c0-.243.061-.47.162-.676.005.005.008.011.012.014l4.041 3.638-4.055 3.98c-.1-.204-.16-.43-.16-.672V3.698zm1.6 7.855c-.247 0-.478-.06-.686-.158L7.07 7.382C7.6 7.86 8.3 8.1 9 8.1c.699 0 1.399-.24 1.931-.72l4.088 4.014c-.21.098-.44.158-.686.158H3.667z" fill="#ABB2BA" stroke="#ABB2BA" stroke-width=".3"/></svg>
